client/src/assets/svg/play_icon.svg

<?xml version="1.0" encoding="utf-8"?><!-- Uploaded to: SVG Repo, www.svgrepo.com, Generator: SVG Repo Mixer Tools -->
<svg width="800px" height="800px" viewBox="0 0 24 24" fill="none" xmlns="http://www.w3.org/2000/svg">
<path d="M16.6582 9.28638C18.098 10.1862 18.8178 10.6361 19.0647 11.2122C19.2803 11.7152 19.2803 12.2847 19.0647 12.7878C18.8178 13.3638 18.098 13.8137 16.6582 14.7136L9.896 18.94C8.29805 19.9387 7.49907 20.4381 6.83973 20.385C6.26501 20.3388 5.73818 20.0469 5.3944 19.584C5 19.053 5 18.1108 5 16.2264V7.77357C5 5.88919 5 4.94701 5.3944 4.41598C5.73818 3.9531 6.26501 3.66111 6.83973 3.6149C7.49907 3.5619 8.29805 4.06126 9.896 5.05998L16.6582 9.28638Z" stroke="#000000" stroke-width="2" stroke-linejoin="round"/>
</svg>

<svg viewBox="0 0 24 24" fill="none" xmlns="http://www.w3.org/2000/svg">
<path d="M16.66 9.29c1.44.9 2.16 1.35 2.41 1.93.21.5.21 1.07 0 1.57-.25.57-.97 1.02-2.41 1.93l-6.76 4.23c-1.6 1-2.4 1.5-3.06 1.44-.57-.05-1.1-.33-1.44-.8-.4-.53-.4-1.47-.4-3.35V7.77c0-1.88 0-2.82.4-3.35.33-.47.87-.75 1.44-.8.66-.06 1.46.43 3.06 1.44l6.76 4.23z" stroke="#000" stroke-width="2" stroke-linejoin="round"/>
</svg>
